svgs/sharp-regular/road.svg

<svg xmlns="http://www.w3.org/2000/svg" viewBox="0 0 576 512"><!--! Font Awesome Pro 6.6.0 by @fontawesome - https://fontawesome.com License - https://fontawesome.com/license (Commercial License) Copyright 2024 Fonticons, Inc. --><path d="M63.6 432L264 432l0-24 0-24 48 0 0 24 0 24 200.4 0L411.8 80 312 80l0 24 0 24-48 0 0-24 0-24-99.8 0L63.6 432zM312 32l136 0L562.3 432 576 480l-49.9 0L49.9 480 0 480l13.7-48L128 32l136 0 48 0zm0 184l0 80 0 24-48 0 0-24 0-80 0-24 48 0 0 24z"/></svg>

<svg xmlns="http://www.w3.org/2000/svg" viewBox="0 0 576 512"><!--! Font Awesome Pro 6.4.0 by @fontawesome - https://fontawesome.com License - https://fontawesome.com/license (Commercial License) Copyright 2023 Fonticons, Inc. --><path d="M63.6 432H264V408 384h48v24 24H512.4L411.8 80H312v24 24H264V104 80H164.2L63.6 432zM312 32H448L562.3 432 576 480H526.1 49.9 0l13.7-48L128 32H264h48zm0 184v80 24H264V296 216 192h48v24z"/></svg>
